static/images/clients/disney.svg

<svg height="38" viewBox="0 0 93 38" width="93" xmlns="http://www.w3.org/2000/svg"><g fill="#fff"><path d="m8.48340435.02236803c-3.59561507.10065613-6.50581604.5480167-7.15752128 1.24142559-.57305116.61512079-1.29217418 1.12958544-1.31464677 1.95720251-.0224726.81643304.93261267.88353713 1.51690012.88353713s1.11239343-.04473606 1.10115713-.3914405c0-.4697286-.76406822-.38025649-.76406822-.84998509 0-.54801671 2.97761877-.68222488 4.46080999-.68222488 12.77566988-.04473605 27.46151038 8.75708321 27.48398298 16.21682081.0224725 5.8045034-7.5620281 7.101849-11.7531669 7.113033-1.4831912.0111841-2.9326736-.1565761-4.3035018-.4026244-.0561815-1.8565464-.1685445-5.7262154-.2247259-8.1755145.4831607-.011184.9326126-.011184 1.325883-.011184 3.0899817-.011184 7.1575213 1.0736653 7.1687576 1.7894422 0 .6151209-1.0786845 1.0401134-1.0786845 1.6328661.0112362.4361766 1.0000304.3690725 1.8652253.4249926.1573082.011184 1.9101706-.9618252 1.8989342-2.4940352 0-2.0354906-2.5506394-4.4400537-10.8654993-4.4176857-.112363 0-.2359623.0111841-.3595615.0111841-.0786542-2.2815389-.415743-5.8827916-1.7191535-5.8827916-1.0786845.011184-1.3933008 3.9703251-1.4944275 6.1623919-4.6630634.6934089-8.80925706 2.5835074-8.79802077 4.4400537 0 1.5210259 3.33718027 5.3571429 8.73060297 7.6834178.0898903 1.7223383.4269792 2.9078438 1.9551157 2.8967382 1.1236297 0 1.4944275-.8165115 1.6180268-1.6776806 1.741626.4473606 3.6405603.6934089 5.6406212.6934089 7.8316991-.022368 14.1127893-4.1828213 14.0903768-9.8866687-.0225328-7.6498657-15.5398591-18.65493586-29.03465212-18.28586338zm-2.10118754 19.03519237c0-1.3308977 4.07877589-1.8341783 7.84293549-2.0243066-.0337089 2.0914107-.0561816 5.0999106-.0561816 7.1018491-4.6293544-1.6216821-7.78675389-4.2051894-7.78675389-5.0775425z"/><path d="m40.3158344 14.058306c-1.3258831.011184-1.359592 5.3124068-1.3933009 7.2472413-.0898904 4.4288696.5618149 4.9545183 1.7416261 4.9433343 1.0562119 0 1.4270097-.1230242 1.325883-3.8249329-.1573081-7.001193-.6404689-8.3544587-1.6742082-8.3544587z"/><path d="m41.0012485 12.0451835c2.9326735-.0111841 7.5957369-3.32165232 7.5845209-6.06173584 0-1.24142559-.6404893-1.86773039-2.2472797-2.10259469-.6741779-.63748881-1.662972-1.35326574-3.134927-1.35326574-4.5619366.01118402-7.5170828 3.62362065-7.5170828 5.5920072 0 .7269609.2359622 1.62168202.8876674 2.37101097.0224727 1.565762.4045068 1.9795706.9213765 1.9795706.5730511 0 .91014-.3243365 1.134866-.726961.6517052.2013123 1.438246.3131524 2.3708587.3019685zm.30338-2.2256189c-.6854141 0-1.247229-.07828815-1.7303898-.2236803 1.2921742-1.45392187 4.4271011-4.2051894 5.9664739-4.2051894 1.0112667-.01118401 1.1798112.79406502 1.1798112 1.0960334 0 1.84536235-3.7866322 3.3440203-5.4158953 3.3440203zm.2134897-4.88741428c-1.4045372.82761705-2.8427832 1.96838652-3.7978685 3.12033996-.0449452-.15657615-.0674178-.30196838-.0674178-.43617653-.0112363-.88353713 1.2921742-2.24798688 3.8652863-2.68416343z"/><path d="m56.1702497 15.0089472c-.0112363-1.2190576-3.1798721-1.2078735-4.9552071-1.1966895-1.3371193 0-8.1238428.1565761-8.1126205 3.925589.0112503 2.5499552 3.7978824 1.9348345 6.314813 2.1808828 2.0562424.2013122 4.5507004.8611691 4.5507004 1.5322099.0112363 1.4874739-5.4271316 2.0914108-6.5507613 2.1025947-2.303441 0-2.3596224-.6598568-2.3596224-1.0065612 0-.3355205.3820341-.9059052 1.247229-.9059052s2.6405298 1.0960334 3.8652862 1.0960334c1.2247564-.011184 2.2584957-.5480167 2.2472595-1.0960334 0-.9953773-4.0675396-1.4874739-5.326005-1.4762899-1.3146467.011184-3.2135809.5480167-3.2135809 2.5164032.0112363 1.0177453 1.6854445 3.4446764 6.4159257 3.4223084 4.6630633-.011184 5.8428745-2.6506114 5.8316382-4.0038771-.0112363-3.3104682-3.1461632-3.6795408-5.8878197-3.9144051-2.0450061-.1677602-4.2697929-.2684163-4.2585567-.7157769.0224727-1.5098419 10.1913216-.3914405 10.1800853-2.4492991z"/><path d="m63.9120585 12.2129436c-.3820342 0-.4494519.4026245-.4494519.8388011.0112363 1.2861617 1.7978075 5.7933194 1.7978075 7.5044736 0 .3578885-.0337089.9953773-.30338 1.0736654-.4269793.1230241-4.1799025-6.6880406-5.7305116-6.7886967-1.6067904-.1118402-2.4607491 6.6768565-2.4496222 8.3544587.0113458 1.6776022.3034895 2.7960036 1.5394821 2.7960036 1.8539891-.0111841.8876676-6.7998807 1.6404994-6.7998807.5505786 0 3.5731425 6.2071279 5.2473509 6.2071279 1.8202801-.011184 2.8989646-2.6617954 2.8878153-4.3841336-.0113233-3.9479571-2.6518531-8.7906352-4.1799895-8.7906352z"/><path d="m76.4967113 22.7259171c-.651705 0-4.2810292.8052491-4.5169914.5815688-.2359623-.2236803.2022533-2.303907.6629415-2.4492992s3.2922354-.1006561 3.7529236-.1342081c1.3146465-.0671041 1.067448-1.8453624.2584343-1.9124665-.415743-.0335521-2.9888549-.0447361-3.1236904-.2796004-.1348356-.2348643.0337089-1.4091858.3258526-1.5322099.5842875-.2348643 4.4832828-.3467045 4.7754265-.4249926.4831605-.1118401.8427218-.3690724.9550853-.7828809.1235992-.4138086-1.348356-2.1025947-3.1798725-1.9124665-3.1236905.3467044-7.1799937.3243364-7.1799937 1.3420817 0 .9506412 1.8989342 1.3308977 1.9438794 1.599314.0561814.2572323-.2471986 1.2526096-.3483252 1.5545781-.112363.3355203-1.471955.4361765-1.5618454 1.3644497-.0224725.2124963.3370889.5480167.2584349.805249-.2134896.794065-.8539586 2.393379-.8539586 3.0644199.0112363 1.0289293.7640682 3.3328363 2.8989647 3.2657322 3.3484165-.1118401 6.3597443-2.4381151 6.4046896-2.8519236.078654-.6151209-.853959-1.3308978-1.4944275-1.3308978z"/><path d="m89.4858713 14.818819c-1.8315165.1006561-5.3372416 3.959141-7.3934843 6.5650164-.1235992-.2684164-.2022533-.5256487-.2022533-.760513 0-1.0960334 2.0899516-4.3953176 2.4719858-5.2229347.4045065-.8611691-.0561818-1.9907545-.5505788-1.58813-.988794.794065-4.1124847 4.4176856-4.1012482 7.795258 0 .771697.2022532 1.7223381.6404685 2.5835073-.7078868 2.2591708-2.4045675 7.3031613-2.3483857 10.3563973.0224722 1.576946 1.6292632 3.1315239 2.5843484 2.9302117.3707978-.0782881.4494518-2.1473308.9326123-3.5565166.674178-2.0131225 1.7528625-5.7038473 2.1348967-7.2807933.1685446.011184.3483248.033552.5393423.033552 3.820341-.011184 8.056425-4.0597971 8.0452108-7.5603936-.0112581-3.4894125-2.0899731-4.3282136-2.7529146-4.2834775zm-4.3933928 8.634059c1.5281363-2.6506114 3.76416-6.1623919 4.595646-6.1512345.573051.0112106.7978064.5815954.7978064 1.4427645.0112066 2.5946913-3.1461929 4.7420221-5.3934524 4.70847z"/></g></svg>

<?xml version="1.0" encoding="UTF-8"?>
<svg width="93px" height="38px" viewBox="0 0 93 38" version="1.1" xmlns="http://www.w3.org/2000/svg" xmlns:xlink="http://www.w3.org/1999/xlink">
    <!-- Generator: Sketch 62 (91390) - https://sketch.com -->
    <title>Disney</title>
    <desc>Created with Sketch.</desc>
    <g id="UI-Design-(Teal)" stroke="none" stroke-width="1" fill="none" fill-rule="evenodd">
        <g id="Homepage-Teal" transform="translate(-1323.000000, -843.000000)" fill="#FFFFFF" fill-rule="nonzero">
            <g id="Disney" transform="translate(1323.000000, 843.000000)">
                <path d="M8.48340435,0.02236803 C4.88778928,0.123024158 1.97758831,0.570384728 1.32588307,1.26379362 C0.75283191,1.87891441 0.0337088925,2.39337906 0.0112362975,3.22099613 C-0.0112362975,4.03742917 0.943848968,4.10453326 1.52813642,4.10453326 C2.11242387,4.10453326 2.64052985,4.0597972 2.62929355,3.71309276 C2.62929355,3.24336416 1.86522533,3.33283627 1.86522533,2.86310767 C1.86522533,2.31509096 4.8428441,2.18088279 6.32603532,2.18088279 C19.1017052,2.13614674 33.7875457,10.937966 33.8100183,18.3977036 C33.8324908,24.202207 26.2479902,25.4995526 22.0568514,25.5107366 C20.5736602,25.5219207 19.1241778,25.3541605 17.7533496,25.1081122 C17.6971681,23.2515658 17.5848051,19.3818968 17.5286237,16.9325977 C18.0117844,16.9214137 18.4612363,16.9214137 18.8545067,16.9214137 C21.9444884,16.9102297 26.012028,17.995079 26.0232643,18.7108559 C26.0232643,19.3259768 24.9445798,19.7509693 24.9445798,20.343722 C24.955816,20.7798986 25.9446102,20.7127945 26.8098051,20.7687146 C26.9671133,20.7798986 28.7199757,19.8068894 28.7087393,18.2746794 C28.7087393,16.2391888 26.1580999,13.8346257 17.84324,13.8569937 C17.730877,13.8569937 17.6072777,13.8681778 17.4836785,13.8681778 C17.4050243,11.5866389 17.0679355,7.9853862 15.764525,7.9853862 C14.6858405,7.9965702 14.3712242,11.9557113 14.2700975,14.1477781 C9.6070341,14.841187 5.46084044,16.7312855 5.47207673,18.5878318 C5.47207673,20.1088577 8.809257,23.9449747 14.2026797,26.2712496 C14.29257,27.9935879 14.6296589,29.1790934 16.1577954,29.1679878 C17.2814251,29.1679878 17.6522229,28.3514763 17.7758222,27.4903072 C19.5174482,27.9376678 21.4163825,28.1837161 23.4164434,28.1837161 C31.2481425,28.1613481 37.5292327,24.0008948 37.5068202,18.2970474 C37.4842874,10.6471817 21.9669611,-0.357888457 8.47216808,0.011184015 L8.48340435,0.02236803 Z M6.38221681,19.0575604 C6.38221681,17.7266627 10.4609927,17.2233821 14.2251523,17.0332538 C14.1914434,19.1246645 14.1689707,22.1331644 14.1689707,24.1351029 C9.5396163,22.5134208 6.38221681,19.9299135 6.38221681,19.0575604 L6.38221681,19.0575604 Z" id="Shape"></path>
                <path d="M40.3158344,14.058306 C38.9899513,14.06949 38.9562424,19.3707128 38.9225335,21.3055473 C38.8326431,25.7344169 39.4843484,26.2600656 40.6641596,26.2488816 C41.7203715,26.2488816 42.0911693,26.1258574 41.9900426,22.4239487 C41.8327345,15.4227557 41.3495737,14.06949 40.3158344,14.06949 L40.3158344,14.058306 Z" id="Path"></path>
                <path d="M41.0012485,12.0451835 C43.933922,12.0339994 48.5969854,8.72353118 48.5857694,5.98344766 C48.5857694,4.74202207 47.9452801,4.11571727 46.3384897,3.88085297 C45.6643118,3.24336416 44.6755177,2.52758723 43.2035627,2.52758723 C38.6416261,2.53877125 35.6864799,6.15120788 35.6864799,8.11959443 C35.6864799,8.84655533 35.9224421,9.74127645 36.5741473,10.4906054 C36.59662,12.0563674 36.9786541,12.470176 37.4955238,12.470176 C38.0685749,12.470176 38.4056638,12.1458395 38.6303898,11.743215 C39.282095,11.9445273 40.0686358,12.0563674 41.0012485,12.0451835 L41.0012485,12.0451835 Z M41.3046285,9.8195646 C40.6192144,9.8195646 40.0573995,9.74127645 39.5742387,9.5958843 C40.8664129,8.14196243 44.0013398,5.3906949 45.5407126,5.3906949 C46.5519793,5.37951089 46.7205238,6.18475992 46.7205238,6.4867283 C46.7205238,8.33209065 42.9338916,9.8307486 41.3046285,9.8307486 L41.3046285,9.8195646 Z M41.5181182,4.93215032 C40.113581,5.75976737 38.675335,6.90053684 37.7202497,8.05249028 C37.6753045,7.89591413 37.6528319,7.7505219 37.6528319,7.61631375 C37.6415956,6.73277662 38.9450061,5.36832687 41.5181182,4.93215032 Z" id="Shape"></path>
                <path d="M56.1702497,15.0089472 C56.1590134,13.7898896 52.9903776,13.8010737 51.2150426,13.8122577 C49.8779233,13.8122577 43.0911998,13.9688338 43.1024221,17.7378467 C43.1136724,20.2878019 46.9003045,19.6726812 49.4172351,19.9187295 C51.4734775,20.1200417 53.9679355,20.7798986 53.9679355,21.4509394 C53.9791718,22.9384133 48.5408039,23.5423502 47.4171742,23.5535341 C45.1137332,23.5535341 45.0575518,22.8936773 45.0575518,22.5469729 C45.0575518,22.2114524 45.4395859,21.6410677 46.3047808,21.6410677 C47.1699757,21.6410677 48.9453106,22.7371011 50.170067,22.7371011 C51.3948234,22.7259171 52.4285627,22.1890844 52.4173265,21.6410677 C52.4173265,20.6456904 48.3497869,20.1535938 47.0913215,20.1647778 C45.7766748,20.1759618 43.8777406,20.7127945 43.8777406,22.681181 C43.8889769,23.6989263 45.5631851,26.1258574 50.2936663,26.1034894 C54.9567296,26.0923054 56.1365408,23.452878 56.1253045,22.0996123 C56.1140682,18.7891441 52.9791413,18.4200715 50.2374848,18.1852072 C48.1924787,18.017447 45.9676919,17.9167909 45.9789281,17.4694303 C46.0014008,15.9595884 56.1702497,17.0779898 56.1590134,15.0201312 L56.1702497,15.0089472 Z" id="Path"></path>
                <path d="M63.9120585,12.2129436 C63.5300243,12.2129436 63.4626066,12.6155681 63.4626066,13.0517447 C63.4738429,14.3379064 65.2604141,18.8450641 65.2604141,20.5562183 C65.2604141,20.9141068 65.2267052,21.5515956 64.9570341,21.6298837 C64.5300548,21.7529078 60.7771316,14.9418431 59.2265225,14.841187 C57.6197321,14.7293468 56.7657734,21.5180435 56.7769003,23.1956457 C56.7882461,24.8732479 57.0803898,25.9916493 58.3163824,25.9916493 C60.1703715,25.9804652 59.20405,19.1917686 59.9568818,19.1917686 C60.5074604,19.1917686 63.5300243,25.3988965 65.2042327,25.3988965 C67.0245128,25.3877125 68.1031973,22.7371011 68.092048,21.0147629 C68.0807247,17.0668058 65.4401949,12.2241277 63.9120585,12.2241277 L63.9120585,12.2129436 Z" id="Path"></path>
                <path d="M76.4967113,22.7259171 C75.8450063,22.7259171 72.2156821,23.5311662 71.9797199,23.3074859 C71.7437576,23.0838056 72.1819732,21.0035789 72.6426614,20.8581867 C73.1033496,20.7127945 75.9348968,20.7575306 76.395585,20.7239786 C77.7102315,20.6568745 77.463033,18.8786162 76.6540193,18.8115121 C76.2382763,18.77796 73.6651644,18.766776 73.5303289,18.5319117 C73.3954933,18.2970474 73.5640378,17.1227259 73.8561815,16.9997018 C74.440469,16.7648375 78.3394643,16.6529973 78.631608,16.5747092 C79.1147685,16.4628691 79.4743298,16.2056368 79.5866933,15.7918283 C79.7102925,15.3780197 78.2383373,13.6892336 76.4068208,13.8793618 C73.2831303,14.2260662 69.2268271,14.2036982 69.2268271,15.2214435 C69.2268271,16.1720847 71.1257613,16.5523412 71.1707065,16.8207575 C71.2268879,17.0779898 70.9235079,18.0733671 70.8223813,18.3753356 C70.7100183,18.7108559 69.3504263,18.8115121 69.2605359,19.7397853 C69.2380634,19.9522816 69.5976248,20.287802 69.5189708,20.5450343 C69.3054812,21.3390993 68.6650122,22.9384133 68.6650122,23.6094542 C68.6762485,24.6383835 69.4290804,26.9422905 71.5639769,26.8751864 C74.9123934,26.7633463 77.9237212,24.4370713 77.9686665,24.0232628 C78.0473205,23.4081419 77.1147075,22.692365 76.474239,22.692365 L76.4967113,22.7259171 Z" id="Path"></path>
                <path d="M89.4858713,14.818819 C87.6543548,14.9194751 84.1486297,18.77796 82.092387,21.3838354 C81.9687878,21.115419 81.8901337,20.8581867 81.8901337,20.6233224 C81.8901337,19.527289 83.9800853,16.2280048 84.3621195,15.4003877 C84.766626,14.5392186 84.3059377,13.4096332 83.8115407,13.8122577 C82.8227467,14.6063227 79.699056,18.2299433 79.7102925,21.6075157 C79.7102925,22.3792127 79.9125457,23.3298538 80.350761,24.191023 C79.6428742,26.4501938 77.9461935,31.4941843 78.0023753,34.5474203 C78.0248475,36.1243663 79.6316385,37.6789442 80.5867237,37.477632 C80.9575215,37.3993439 81.0361755,35.3303012 81.519336,33.9211154 C82.193514,31.9079929 83.2721985,28.2172681 83.6542327,26.6403221 C83.8227773,26.6515061 84.0025575,26.6738741 84.193575,26.6738741 C88.013916,26.6626901 92.25,22.614077 92.2387858,19.1134805 C92.2275277,15.624068 90.1488127,14.7852669 89.4858712,14.830003 L89.4858713,14.818819 Z M85.0924785,23.452878 C86.6206148,20.8022666 88.8566385,17.2904861 89.6881245,17.3016435 C90.2611755,17.3128541 90.4859309,17.8832389 90.4859309,18.744408 C90.4971375,21.3390993 87.339738,23.4864301 85.0924785,23.452878 L85.0924785,23.452878 Z" id="Shape"></path>
            </g>
        </g>
    </g>
</svg>
